dist/img/svg/facebook-21.svg

<svg width="11" height="21" viewBox="0 0 11 21" fill="none" xmlns="http://www.w3.org/2000/svg">
<path d="M10.5823 0H9.27058C5.62487 0 2.6589 2.56982 2.6589 5.72851V8.14612H0.417895C0.187133 8.14612 0 8.30825 0 8.50819V11.4047C0 11.6047 0.187133 11.7668 0.417895 11.7668H2.65873V20.6379C2.65873 20.8379 2.84587 21 3.07663 21H6.41979C6.65055 21 6.83768 20.8379 6.83768 20.6379V11.7668H10.163C10.3937 11.7668 10.5809 11.6047 10.5809 11.4047V8.50819C10.5809 8.30825 10.3937 8.14612 10.163 8.14612H6.83768V5.72851C6.83768 4.56627 7.92906 3.62069 9.27042 3.62069H10.5821C10.8129 3.62069 11 3.45856 11 3.25862V0.362069C11.0002 0.162134 10.813 0 10.5823 0Z" fill="white"/>
</svg>

<svg width="11" height="21" viewBox="0 0 11 21" fill="none" xmlns="http://www.w3.org/2000/svg"><path d="M10.582 0H9.271C5.625 0 2.659 2.57 2.659 5.729v2.417H.418c-.23 0-.418.162-.418.362v2.897c0 .2.187.362.418.362h2.24v8.87c0 .2.188.363.419.363H6.42c.23 0 .418-.162.418-.362v-8.871h3.325c.23 0 .418-.162.418-.362V8.508c0-.2-.187-.362-.418-.362H6.838V5.73c0-1.163 1.091-2.108 2.432-2.108h1.312c.23 0 .418-.162.418-.362V.362c0-.2-.187-.362-.418-.362z" fill="#fff"/></svg>
